assets/img/microillustration/bottle.svg

<?xml version="1.0" encoding="UTF-8"?>
<svg viewBox="0 0 106 106" version="1.1" xmlns="http://www.w3.org/2000/svg" xmlns:xlink="http://www.w3.org/1999/xlink">
    <title>4. Elements_Microillustrations/Bottle</title>
    <defs>
        <path d="M88,44 C88,68.3004855 68.3000427,88 43.9990109,88 C19.6979792,88 0,68.3004855 0,44 C0,19.6995145 19.6979792,0 43.9990109,0 C68.3000427,0 88,19.6995145 88,44" id="path-1"></path>
    </defs>
    <g id="4.-Elements_Microillustrations/Bottle" stroke="none" stroke-width="1" fill="none" fill-rule="evenodd">
        <g id="Vector-Smart-Object" transform="translate(9.000000, 9.000000)">
            <mask id="mask-2" fill="white">
                <use xlink:href="#path-1"></use>
            </mask>
            <use id="Mask" fill="#FFEACF" xlink:href="#path-1"></use>
        </g>
        <g id="Group-68" transform="translate(45.000000, 24.000000)">
            <path d="M13.2963923,2.39220192 C13.2963923,1.0712281 12.2659284,0.000399775908 10.9941985,0.000399775908 L5.00596639,0.000399775908 C3.73478606,0.000399775908 2.70377253,1.0712281 2.70377253,2.39220192 L2.70377253,7.60013979 C2.70377253,7.61784415 2.71201624,7.63326408 2.71366498,7.65096844 C2.71146666,7.67209945 2.70377253,7.69094603 2.70377253,7.71321926 C2.70377253,8.70523462 5.07521356,8.70523462 8.00008244,8.70523462 C10.9249513,8.70523462 13.2963923,8.70523462 13.2963923,7.71321926 C13.2963923,7.69094603 13.2886982,7.67209945 13.2864999,7.65096844 C13.2875991,7.63326408 13.2963923,7.61784415 13.2963923,7.60013979 L13.2963923,2.39220192 Z" id="Fill-60" fill="#0097B8"></path>
            <path d="M13.2963923,7.71339059 C13.2963923,6.72194634 10.9249513,6.72194634 8.00008244,6.72194634 C7.01138663,6.72194634 6.08919009,6.72308855 5.2972442,6.76135282 L5.2972442,2.39237325 C5.2972442,1.07139943 6.32770815,0 7.59943805,0 L5.00596639,0 C3.73478606,0 2.70377253,1.07139943 2.70377253,2.39237325 L2.70377253,7.60031112 C2.70377253,7.61801548 2.71256582,7.6328643 2.71366498,7.65113977 C2.71146666,7.67227078 2.70377253,7.69111736 2.70377253,7.71339059 C2.70377253,8.02350247 2.93514603,8.23652592 3.34293497,8.38272968 C3.35777365,8.38844077 3.37590981,8.39186742 3.39129808,8.39700739 C3.88042496,8.56205773 4.60202452,8.63915737 5.47585795,8.6751372 C5.62534392,8.68027718 5.7803257,8.68541715 5.93860496,8.68941491 C6.57227159,8.70483484 7.26859043,8.70483484 8.00008244,8.70483484 L8.00008244,8.70483484 C10.9255009,8.70483484 13.2963923,8.70483484 13.2963923,7.71339059" id="Fill-62" fill="#00547A"></path>
            <path d="M13.6213595,19.0509211 C12.8541447,15.6511126 12.4622936,12.1713488 12.4480045,8.68016296 C12.4573474,8.64304091 12.4661407,8.60648997 12.4661407,8.56594127 C12.4661407,8.56023018 12.4639423,8.55509021 12.4633928,8.54937912 C12.7453277,8.41802418 12.9069045,8.23983835 12.9069045,7.99483283 C12.9069045,7.079346 10.7173747,7.079346 8.01673473,7.079346 C5.31609482,7.079346 3.1271146,7.079346 3.1271146,7.99483283 C3.1271146,8.23526948 3.2815468,8.41174199 3.55358928,8.54252582 C3.54974221,12.0805426 3.15624238,15.6065661 2.37858559,19.0509211 L1.17610285,24.3776495 C0.395148576,27.8397089 0,30.2423621 0,33.7980833 L0,58.4625434 C0,60.9679962 1.95540839,63 4.36696882,63 L11.6329762,63 C14.0450862,63 15.999945,60.9679962 15.999945,58.4625434 L15.999945,33.7980833 C15.999945,30.2423621 15.605346,27.8397089 14.8238422,24.3776495 L13.6213595,19.0509211 Z" id="Fill-64" fill="#D76230"></path>
            <path d="M16,54.715501 L16,54.2220633 L4.07519639,54.2220633 L4.07519639,34.939729 C4.07519639,31.3834368 4.46979538,27.8391378 5.25129924,24.3776495 L6.45323239,19.0509211 C7.20121183,15.7379211 7.59471166,12.3501058 7.62713692,8.94858392 C7.63043441,8.65046532 7.79530864,8.38318657 8.05690909,8.26096936 C8.4910779,8.05765476 9.21762368,7.78694936 10.0573831,7.75553839 C9.4456997,7.73326516 8.75322793,7.73269405 8.01678969,7.73269405 L7.72990853,7.73269405 C8.22672955,7.07991711 10.4299989,7.079346 8.01678969,7.079346 C5.31614977,7.079346 3.12716956,7.079346 3.12716956,7.99483283 C3.12716956,8.23526948 3.28215133,8.41117088 3.55419382,8.54195471 C3.54979717,12.0805426 3.15574776,15.605995 2.37864054,19.0509211 L1.17615781,24.3776495 C0.394653953,27.8391378 0.000604538853,31.3834368 0.000604538853,34.939729 L0.000604538853,54.2220633 L5.495808e-05,54.715501 L0.000604538853,58.4625434 C0.000604538853,60.9679962 1.95546335,63 4.36702378,63 L8.44216521,63 C6.0300552,63 4.07519639,60.9679962 4.07519639,58.4625434 L4.07519639,54.715501 L16,54.715501 Z" id="Fill-66" fill="#AA391B"></path>
        </g>
    </g>
</svg>

<?xml version="1.0" encoding="UTF-8"?>
<svg version="1.1" viewBox="0 0 106 106" xmlns="http://www.w3.org/2000/svg" xmlns:xlink="http://www.w3.org/1999/xlink">
<title>4. Elements_Microillustrations/Bottle</title>
<defs>
<path id="a" d="m88 44c0 24.3-19.7 44-44.001 44-24.301 0-43.999-19.7-43.999-44s19.698-44 43.999-44c24.301 0 44.001 19.7 44.001 44"/>
</defs>
<g fill="none" fill-rule="evenodd">
<g transform="translate(9 9)">
<mask fill="white">
<use xlink:href="#a"/>
</mask>
<use fill="#FFEACF" xlink:href="#a"/>
</g>
<g transform="translate(45 24)">
<path d="m13.296 2.3922c0-1.321-1.0305-2.3918-2.3022-2.3918h-5.9882c-1.2712 0-2.3022 1.0708-2.3022 2.3918v5.2079c0 0.017704 0.0082437 0.033124 0.0098924 0.050829-0.0021983 0.021131-0.0098924 0.039978-0.0098924 0.062251 0 0.99202 2.3714 0.99202 5.2963 0.99202 2.9249 0 5.2963 0 5.2963-0.99202 0-0.022273-0.0076941-0.04112-0.0098924-0.062251 0.0010992-0.017704 0.0098924-0.033124 0.0098924-0.050829v-5.2079z" fill="#0097B8"/>
<path d="m13.296 7.7134c0-0.99144-2.3714-0.99144-5.2963-0.99144-0.9887 0-1.9109 0.0011422-2.7028 0.039406v-4.369c0-1.321 1.0305-2.3924 2.3022-2.3924h-2.5935c-1.2712 0-2.3022 1.0714-2.3022 2.3924v5.2079c0 0.017704 0.0087933 0.032553 0.0098924 0.050829-0.0021983 0.021131-0.0098924 0.039978-0.0098924 0.062251 0 0.31011 0.23137 0.52314 0.63916 0.66934 0.014839 0.0057111 0.032975 0.0091377 0.048363 0.014278 0.48913 0.16505 1.2107 0.24215 2.0846 0.27813 0.14949 0.00514 0.30447 0.01028 0.46275 0.014278 0.63367 0.01542 1.33 0.01542 2.0615 0.01542 2.9254 0 5.2963 0 5.2963-0.99144" fill="#00547A"/>
<path d="m13.621 19.051c-0.76721-3.3998-1.1591-6.8796-1.1734-10.371 0.0093429-0.037122 0.018136-0.073673 0.018136-0.11422 0-0.0057111-0.0021984-0.010851-0.0027479-0.016562 0.28193-0.13135 0.44351-0.30954 0.44351-0.55455 0-0.91549-2.1895-0.91549-4.8902-0.91549-2.7006 0-4.8896 0-4.8896 0.91549 0 0.24044 0.15443 0.41691 0.42647 0.54769-0.0038471 3.538-0.39735 7.064-1.175 10.508l-1.2025 5.3267c-0.78095 3.4621-1.1761 5.8647-1.1761 9.4204v24.664c0 2.5055 1.9554 4.5375 4.367 4.5375h7.266c2.4121 0 4.367-2.032 4.367-4.5375v-24.664c0-3.5557-0.3946-5.9584-1.1761-9.4204l-1.2025-5.3267z" fill="#D76230"/>
<path d="m16 54.716v-0.49344h-11.925v-19.282c0-3.5563 0.3946-7.1006 1.1761-10.562l1.2019-5.3267c0.74798-3.313 1.1415-6.7008 1.1739-10.102 0.0032975-0.29812 0.16817-0.5654 0.42977-0.68761 0.43417-0.20331 1.1607-0.47402 2.0005-0.50543-0.61168-0.022273-1.3042-0.022844-2.0406-0.022844h-0.28688c0.49682-0.65278 2.7001-0.65335 0.28688-0.65335-2.7006 0-4.8896 0-4.8896 0.91549 0 0.24044 0.15498 0.41634 0.42702 0.54712-0.0043966 3.5386-0.39845 7.064-1.1756 10.509l-1.2025 5.3267c-0.7815 3.4615-1.1756 7.0058-1.1756 10.562v19.282l-5.4958e-4 0.49344 5.4958e-4 3.747c0 2.5055 1.9549 4.5375 4.3664 4.5375h4.0751c-2.4121 0-4.367-2.032-4.367-4.5375v-3.747h11.925z" fill="#AA391B"/>
</g>
</g>
</svg>
